svg/color/mina.svg

<svg width="64" height="65" viewBox="0 0 64 65" fill="none" xmlns="http://www.w3.org/2000/svg">
<rect y="0.303711" width="64" height="64" rx="32" fill="#2D2D2D"/>
<rect x="0.5" y="0.803711" width="63" height="63" rx="31.5" stroke="#070B14" stroke-opacity="0.15"/>
<path fill-rule="evenodd" clip-rule="evenodd" d="M17.7465 16.0258C18.3949 15.2847 19.2899 14.9705 20.2 14.9705C21.032 14.9705 21.8742 15.1846 22.5779 15.8003C23.2569 16.3944 23.6564 17.2322 23.8934 18.1804L23.913 18.2585L24.0158 19.0809C26.7748 20.1238 28.3248 22.7623 28.7236 26.1439C28.7238 26.1453 28.724 26.1466 28.7241 26.148L30.805 42.9842C31.6023 43.0992 32.3976 43.0992 33.1949 42.9842L35.2809 26.106L35.2869 26.0721C35.6061 24.2633 36.1587 22.6403 37.1022 21.362C37.8882 20.2972 38.9128 19.517 40.1863 19.0638L40.2784 18.3268L40.28 18.3152C40.409 17.4129 40.7508 16.5674 41.3822 15.936C42.0321 15.286 42.8832 14.9705 43.7999 14.9705C44.71 14.9705 45.605 15.2847 46.2534 16.0258C46.8814 16.7435 47.1332 17.6962 47.1332 18.7038V19.4097C48.1812 19.9199 49.0599 20.665 49.7093 21.6392C50.5338 22.8759 50.9332 24.397 50.9332 26.1038V49.2371H44.4666V21.3866C43.8594 21.304 43.2193 21.2877 42.5854 21.3239L40.323 38.6691C40.3228 38.6703 40.3227 38.6716 40.3225 38.6728C40.0949 40.4889 39.4569 41.9965 38.4584 43.1509C37.6617 44.0721 36.6742 44.7236 35.5803 45.1318L35.3314 46.6254C35.3185 47.0376 35.239 47.4362 35.0683 47.8203C34.8835 48.2361 34.6214 48.5678 34.3427 48.8465L34.1897 48.9995L33.9962 49.0963C33.986 49.1014 33.9756 49.1066 33.9651 49.1119C33.5534 49.318 32.9163 49.6371 32 49.6371C31.0836 49.6371 30.4465 49.318 30.0348 49.1119C30.0243 49.1066 30.0139 49.1014 30.0037 49.0963L29.8102 48.9995L29.6572 48.8465C29.3785 48.5678 29.1164 48.2361 28.9316 47.8203C28.7609 47.4362 28.6814 47.0376 28.6685 46.6254L28.4192 45.1295C27.3284 44.7158 26.3726 44.0537 25.6143 43.1185C24.6722 41.9565 24.1007 40.4551 23.8774 38.6727C23.8772 38.6715 23.8771 38.6703 23.8769 38.6691L21.6058 21.2569C21.3447 21.2377 21.0878 21.2371 20.7999 21.2371C20.4369 21.2371 19.9936 21.2922 19.5333 21.3765V49.2371H13.0667V26.1038C13.0667 24.397 13.4661 22.8759 14.2906 21.6392C14.94 20.665 15.8187 19.9199 16.8667 19.4097V18.7038C16.8667 17.6962 17.1185 16.7435 17.7465 16.0258ZM19.5334 18.674C19.9605 18.6114 20.3942 18.5705 20.7999 18.5705L20.8206 18.5705C20.9525 18.5705 21.0904 18.5704 21.2353 18.5729C21.0883 18.1041 20.9259 17.8981 20.822 17.8072C20.7257 17.7229 20.5679 17.6371 20.2 17.6371C19.91 17.6371 19.805 17.7228 19.7534 17.7817C19.6826 17.8626 19.5382 18.103 19.5334 18.674ZM24.4547 22.4819L26.5225 38.3348L26.523 38.3384C26.7 39.7545 27.1284 40.7518 27.6856 41.439C27.7739 41.548 27.8672 41.6513 27.9654 41.7488L26.0762 26.4634L26.0758 26.4595C25.8594 24.6199 25.2843 23.3197 24.4547 22.4819ZM16.8667 22.6636C16.7356 22.8057 16.6166 22.9575 16.5093 23.1183C16.0338 23.8316 15.7333 24.8105 15.7333 26.1038V46.5705H16.8667V22.6636ZM31.2192 45.7092L31.3333 46.3934V46.5038C31.3333 46.6482 31.3557 46.7089 31.3683 46.7373C31.3761 46.7547 31.3899 46.7812 31.4178 46.8192C31.6567 46.9307 31.7955 46.9705 32 46.9705C32.2044 46.9705 32.3432 46.9307 32.5821 46.8192C32.61 46.7812 32.6238 46.7548 32.6316 46.7373C32.6442 46.7089 32.6667 46.6482 32.6667 46.5038V46.3934L32.7807 45.7092C32.2603 45.7464 31.7396 45.7464 31.2192 45.7092ZM39.76 22.3685L37.6774 38.3348L37.6769 38.3384C37.5042 39.7206 37.0424 40.7118 36.4415 41.4066C36.3119 41.5564 36.173 41.6958 36.0251 41.8246L37.9189 26.5022C38.2 24.9278 38.6454 23.7615 39.2477 22.9455C39.404 22.7337 39.5739 22.5412 39.76 22.3685ZM42.9274 18.6422C43.4333 18.6313 43.9506 18.6485 44.4666 18.7015C44.4663 18.1107 44.3184 17.8639 44.2465 17.7817C44.1949 17.7228 44.0899 17.6371 43.7999 17.6371C43.5167 17.6371 43.3678 17.7215 43.2677 17.8215C43.1532 17.9361 43.0017 18.1774 42.9274 18.6422ZM47.1332 22.6636V46.5705H48.2666V26.1038C48.2666 24.8105 47.9661 23.8316 47.4906 23.1183C47.3833 22.9575 47.2643 22.8057 47.1332 22.6636Z" fill="white"/>
</svg>

<svg xmlns="http://www.w3.org/2000/svg" width="64" height="65" fill="none" viewBox="0 0 64 65"><rect width="64" height="64" y=".304" fill="#2D2D2D" rx="32"/><rect width="63" height="63" x=".5" y=".804" stroke="#070B14" stroke-opacity=".15" rx="31.5"/><path fill="#fff" fill-rule="evenodd" d="M17.747 16.026c.648-.741 1.543-1.056 2.453-1.056.832 0 1.674.215 2.378.83.679.594 1.078 1.432 1.315 2.38l.02.079.103.822c2.759 1.043 4.309 3.681 4.708 7.063v.004l2.081 16.836a8.3 8.3 0 0 0 2.39 0l2.086-16.878.006-.034c.32-1.809.872-3.432 1.815-4.71a6.46 6.46 0 0 1 3.084-2.298l.092-.737.002-.012c.129-.902.47-1.748 1.102-2.379.65-.65 1.501-.966 2.418-.966.91 0 1.805.315 2.453 1.056.628.718.88 1.67.88 2.678v.706a6.44 6.44 0 0 1 2.576 2.23c.825 1.236 1.224 2.757 1.224 4.464v23.133h-6.466v-27.85a10 10 0 0 0-1.882-.063l-2.262 17.345v.004c-.228 1.816-.866 3.323-1.865 4.478a7 7 0 0 1-2.878 1.98l-.249 1.494a3.1 3.1 0 0 1-.263 1.195 3.4 3.4 0 0 1-.725 1.026L34.19 49l-.194.096-.03.016c-.413.206-1.05.525-1.966.525s-1.553-.319-1.965-.525l-.031-.016L29.81 49l-.153-.154a3.4 3.4 0 0 1-.725-1.026 3.2 3.2 0 0 1-.263-1.195l-.25-1.495a6.55 6.55 0 0 1-2.805-2.012c-.942-1.162-1.513-2.663-1.737-4.445v-.004l-2.271-17.412c-.261-.02-.518-.02-.806-.02-.363 0-.806.055-1.267.14v27.86h-6.466V26.104c0-1.707.4-3.228 1.224-4.465a6.44 6.44 0 0 1 2.576-2.23v-.705c0-1.008.252-1.96.88-2.678m1.786 2.648a9 9 0 0 1 1.267-.104h.02q.199 0 .415.003c-.147-.469-.31-.675-.413-.766-.096-.084-.254-.17-.622-.17-.29 0-.395.086-.447.145-.07.08-.215.321-.22.892m4.922 3.808 2.068 15.853v.003c.177 1.416.605 2.414 1.163 3.101q.132.163.28.31l-1.89-15.286v-.004c-.217-1.84-.792-3.14-1.621-3.977m-7.588.182a4 4 0 0 0-.358.454c-.475.714-.776 1.693-.776 2.986V46.57h1.134zm14.352 23.045.114.684v.11c0 .145.023.206.035.234a.5.5 0 0 0 .05.082c.239.112.378.151.582.151s.343-.04.582-.15a.4.4 0 0 0 .05-.083.55.55 0 0 0 .035-.233v-.11l.114-.685q-.78.056-1.562 0m8.541-23.34-2.083 15.966v.003c-.173 1.383-.635 2.374-1.236 3.069q-.194.225-.416.418l1.894-15.323c.281-1.574.726-2.74 1.329-3.556q.233-.318.512-.578m3.167-3.727c.506-.01 1.024.006 1.54.06 0-.591-.149-.838-.22-.92-.052-.06-.157-.145-.447-.145-.283 0-.432.084-.532.184-.115.115-.266.356-.34.821m4.206 4.022V46.57h1.134V26.104c0-1.293-.3-2.272-.776-2.986a4 4 0 0 0-.358-.454" clip-rule="evenodd"/></svg>
